!!!!SEGMENT: pl-wtm--r-1333_stefani-jozef--mazur-c-nr-1.krn
!!!cenid: 18xx:1840
!!!COM: Stefani, Józef
!!!COM-rismID: pe30024097
!!!CDT: 1800/04/16-1876/03/19
!!!CNT: Polish
!!!OTL: Mazur C nr 1
!!!PDT:
!!!AGN: Secular; Mazurka
!!!SMS-siglum: PL-Wtm
!!!SMS-shelfmark: R 1333
!!!SMS-shelfwork: W
!!!SMS-variant:
!!!SMS-altvar:
!!!NIFC-rismSourceID: 1001119011
!!!NIFC-islandoraID: pl-wtm:25190
!!!URL-pdf-islandora: https://repozytorium.nifc.pl/islandora/object/pl-wtm%3A25190/datastream/PDF/view
!!!URL-scan: https://polish.musicsources.pl/pl/lokalizacje/galeria/rekopisy/6185 @EN{Scan on Polish Music Sources Website} @PL{Skany w portalu Dziedzictwo Muzyki Polskiej w otwartym dostępie}
!!!ONB-nifc:
!!!AIN: 1 empty
!!!key:
**kern	**kern	**dynam
*part1	*part1	*part1
*staff2	*staff1	*
*Iempty	*Ipiano	*
*	*I"Piano	*
*clefF4	*clefG2	*
*k[]	*k[]	*
*C:	*C:	*
*M3/8	*M3/8	*
*>[A,B,B,C,C,D,E,E,A,B,B,C,C,F]	*>[A,B,B,C,C,D,E,E,A,B,B,C,C,F]	*
=1	=1	=1
*>A	*>A	*
!LO:TX:t=P:problem=all\right&colon; global	!LO:TX:t=P:problem=all\right&colon; global	!
!	!LO:TX:a:Bi:t=Mazur	!
8GL 8E 8C\	16.ee\LL	mf
.	32gg\JJk	.
8G 8D 8GG\	8b^<\L	.
8GJ 8E 8C\	8cc\J	.
=2	=2	=2
(>8AL 8F#X 8D#X 8C\	(<8a^<T>/L	.
8G 8E 8C\)	8g/)	.
8GJ 8E 8C\	8cc'</J	.
=3	=3	=3
.	(<8qee/	.
8GL 8D 8BB\	16.dd\LL)	.
.	32cc#X'>\JJk	.
8G 8D 8BB\	8dd'>\L	.
8GJ 8D 8GG\	8ggJ 8dd 8b'>\	.
=4	=4	=4
*tremolo	*	*
8GL 8E 8C\	(>16ee\LL	.
.	16ff\	.
8G 8E 8C\	16dd\	.
.	16ee\JJ)	.
8GJ 8E 8C\	8cc\	.
=5	=5	=5
!	!	!LO:DY:b:rj
8GL 8E 8C\	16cc'>\LL	f
.	(>32ee\L	.
.	32gg\JJJ)	.
8G 8E 8C\	8cccL 8cc\	.
8GJ 8E 8C\	8bbJ 8b\	.
*Xtremolo	*	*
!!LO:LB:g=original
=6	=6	=6
8F 8FF/	(>16bbt>\LL	.
.	16aa\JJ)	.
8dL 8A 8F\	8gg\L	.
8dJ 8A 8D\	8ff\J	.
=7	=7	=7
.	8qee/	.
8G 8GG\	16.dd\LL	.
.	32cc#X\JJk	.
8fL 8d 8G\	8dd\L	.
8fJ 8d 8G\	8ggJ 8b\	.
=8	=8	=8
8e 8c\	(>32b\LLL	.
.	32cc\	.
.	32ee\	.
.	32gg\JJJ)	.
8e 8c\	8ccc 8cc\	.
8r	8r	.
=9!|:	=9!|:	=9!|:
*^	*	*
*>B	*	*>B	*
!	!	!	!LO:DY:b:rj
4.F#X/	8F#\L	(>16ee\LL	p
.	.	16dd\J)	.
.	8d 8c 8A\	8a'>\J	.
.	8dJ 8c 8A\	(>16ee\LL	.
.	.	16dd\JJ)	.
=10	=10	=10	=10
4.G/	8G\L	(>16ee\LL	.
.	.	16dd\J)	.
.	8d 8B\	8cc'>\J	.
.	8dJ 8B\	(>16ee\LL	.
.	.	16dd\JJ)	.
!!LO:LB:g=original
*v	*v	*	*
=11	=11	=11
*tremolo	*	*
!	!	!LO:DY:b:Bi:t=%sor
8cL 8A 8D\	(>32cc#X\LLL	f
.	32dd\	.
.	32dd#X\	<
.	32ee\JJJ	.
8c 8A 8D\	32ff\LLL	.
.	32ff#X\	.
.	32gg\	.
.	32gg#X\JJJ)	.
8cJ 8A 8D\	16.aa\LL	.
.	32ff#\JJk	[[
=12	=12	=12
8BL 8G\	16.gg\LL	.
.	32b\JJk	.
8B 8G\	(>8ee\L	.
8BJ 8G\	8dd\J)	.
*Xtremolo	*	*
=13	=13	=13
*^	*	*
!	!	!	!LO:DY:b:rj
4.G#X/	8G#\L	(>16ff\LL	p
.	.	16ee\J)	.
.	8e 8d 8B\	8b'>\J	.
.	8eJ 8d 8B\	(>16ff\LL	.
.	.	16ee\JJ)	.
=14	=14	=14	=14
4.A/	8A\L	(>16ff\LL	.
.	.	16ee\J)	.
.	8e 8c\	8cc'>\J	.
.	8eJ 8c\	(>16ff\LL	.
.	.	16ee\JJ)	.
*v	*v	*	*
=15	=15	=15
*tremolo	*	*
8cL 8A 8D\	(>32cc#X\LLL	f
.	32dd\	<
.	32dd#X\	.
.	32ee\JJJ	.
8c 8A 8D\	32ff\LLL	.
.	32ff#X\	.
.	32gg\	.
.	32gg#X\JJJ)	.
8cJ 8A 8D\	16.aa\LL	.
.	32ff#\JJk	[[
*Xtremolo	*	*
!!LO:LB:g=original
=16	=16	=16
8B 8G\	8gg\	.
8G 8GG/	8ggg 8bb 8gg\	.
8r	8r	.
=17	=17	=17
8GL 8E 8C\	16.ee\LL	mf
.	32gg\JJk	.
8G 8F 8C\	8b^>\L	.
8GJ 8E 8C\	8cc\J	.
=18	=18	=18
(>8AL 8F#X 8D#X 8C\	(<8a^<T>/L	.
8G 8F# 8C\)	8g/)	.
8GJ 8E 8C'>\	8cc/J	.
=19	=19	=19
.	(<8qee/	.
8GL 8D 8BB\	16.dd\LL)	.
.	32cc#X\JJk	.
8G 8D 8BB\	8dd\L	.
8GJ 8D 8BB 8GG\	8ggJ 8dd 8b\	.
=20	=20	=20
8GL 8E 8C\	(>16ee\LL	.
.	16ff\	.
8G 8BB 8GG\	16dd\	.
.	16ee\J)	.
8GJ 8E 8C\	8cc'>\J	.
=21	=21	=21
*tremolo	*	*
!	!	!LO:DY:v:rj
8GL 8E 8C\	16cc\LL	f
.	32ee\L	.
.	32gg\JJJ	.
8G 8E 8C\	8cccL 8cc\	.
8GJ 8E 8C\	8bbJ 8b\	.
*Xtremolo	*	*
!!LO:LB:g=original
=22	=22	=22
8F 8FF/	(>16bbt>\LL	.
.	16aa\JJ)	.
8dL 8A 8F\	8gg\L	.
8dJ 8A 8D\	8ff\J	.
=23	=23	=23
.	(<8qee/	.
8G 8GG/	16.dd\LL)	.
.	32cc#X'>\JJk	.
8fL 8d 8G\	8dd'>\L	.
8fJ 8d 8G\	8ggJ 8b'>\	.
=24	=24	=24
8eL 8c\	(>32b\LLL	.
.	32cc\	.
.	32ee\	.
.	32gg\JJJ)	.
8eJ 8c\	8ccc 8cc'>\	.
8r	8r	.
=25:|!|:	=25:|!|:	=25:|!|:
*>C	*>C	*
*tremolo	*	*
8BL 8G 8E\	16.ee\LL	p
.	32ee\JJk	.
.	(<16qqee/LL	.
.	16qqff/JJ	.
8B 8G 8E\	4gg\)	.
8BJ 8G 8E\	.	.
*Xtremolo	*	*
=26	=26	=26
.	(<8qgg/	.
8BL 8A 8E\	16.ff#X\LL)	.
.	32dd#X'>\JJk	.
8B 8G 8E\	8ee'>\L	.
8BJ 8G 8E\	8eeeJ 8gg 8ee'>\	sf
!!LO:PB:g=original
=27	=27	=27
*tremolo	*	*
8BL 8G 8E\	16.ee'>\LL	.
.	32ee'>\JJk	.
.	(<16qqee/LL	.
.	16qqff#X/JJ	.
8B 8G 8E\	8gg\L)	.
8BJ 8G 8E\	8ee\J	.
*Xtremolo	*	*
=28	=28	=28
.	(<8qgg/	.
8B 8A 8E\	16.ff#X\LL)	.
.	32dd#X'>\JJk	.
4B 4G 4E\	4ee'>\	sf
=29	=29	=29
!	!	!LO:DY:b:Bi:t=%sor
!	!LO:TUP:a	!
8BB/	(>24dd#X\LL	f
.	24ff#X\	.
.	24aa\JJ)	.
8BL 8A 8F#X\	8bb\L	.
8BJ 8A 8F#\	8ddd#X\J	.
=30	=30	=30
8E\	16.eee\LL	.
.	32gg\JJk	.
8BL 8G\	(>16ccc\LL	.
.	16bb\	.
8BJ 8G\	16gg\	.
.	16ee\JJ)	.
=31	=31	=31
*tremolo	*	*
!	!LO:TUP:a	!
8AL 8F#X 8BB\	(>24dd#X\LL	.
.	24ee\	.
.	24ff#X\JJ)	.
8A 8F# 8BB\	8b\L	.
8AJ 8F# 8BB\	8dd#\J	.
*Xtremolo	*	*
!!LO:LB:g=original
=32	=32	=32
8GL 8E\	8ee\L	.
8GJ 8E\	8eeeJ 8gg 8ee\	.
8ryy	8r	.
=33	=33	=33
*^	*	*
4C/	8C\L	16.ee\LL	mf
.	.	32gg\JJk	.
.	8GJ 8F 8D\	8b\^>L	.
8ryy	8G 8E 8C\	8cc\J	.
*v	*v	*	*
=34	=34	=34
!LO:TX:a:t=P:problem=diminuendolike accent	!	!
(>8AL 8F#X 8D#X 8C^>\	(<8aT>/L	.
8G 8E 8C\)	8g/)	.
8GJ 8E 8C\	8cc'</J	.
=35	=35	=35
.	(<8qee/	.
8GL 8D 8BB\	16.dd\LL)	.
.	32cc#X\JJk	.
8G 8D 8BB\	8dd\L	.
8GJ 8D 8GG\	8ggJ 8dd 8b\	.
=36	=36	=36
8GL 8E 8C\	(>16ee\LL	.
.	16ff\	.
8G 8D 8GG\	16dd\	.
.	16ee\J	.
8GJ 8E 8C\	8cc\J)	f
=37	=37	=37
*tremolo	*	*
8GL 8E 8C\	16cc'>\LL	.
.	(>32ee\L	.
.	32gg\JJJ	.
8G 8E 8C\	8cccL 8cc\)	.
8GJ 8E 8C\	8bbJ 8b\	.
*Xtremolo	*	*
!!LO:LB:g=original
=38	=38	=38
!	!LO:TX:t=P:problem=w źrodle tryl oznaczony jako "tri"	!
8F 8FF/	(>16bbt>\LL	.
.	16aa\JJ)	.
8dL 8A 8F\	(>8gg\L	.
8dJ 8A 8D\	8ff\J)	.
=39	=39	=39
.	8qee/	.
8G 8GG\	16.dd\LL	.
.	32cc#X\JJk	.
8fL 8d 8G\	8dd\L	.
8fJ 8d 8G\	8ggJ 8b\	.
=40	=40	=40
8e 8c\	(>32b\LLL	.
.	32cc\	.
.	32ee\	.
.	32gg\JJJ)	.
8e 8c\	8ccc 8cc\	.
!	!LO:TX:a:t=P:problem=w źródle fermata nad kreską repetycji	!
8r	8r;>	.
!!LO:LB:g=original
=41:|!	=41:|!	=41:|!
*>D	*>D	*
*k[b-]	*k[b-]	*
*M3/8	*M3/8	*
*tremolo	*	*
!	!LO:TX:a:Bi:t=Trio	!
!	!	!LO:DY:b:rj
8cL 8A 8F\	8a'</L	p
.	(<16qqa/LL	.
.	16qqb-/JJ	.
8c 8A 8F\	8cc/)	.
8cJ 8A 8F\	8a'</J	.
=42	=42	=42
.	8qa/	.
8cL 8G 8E 8C\	16.g/LL	.
.	32f#X/JJk	.
8c 8G 8E 8C\	4g/	.
8cJ 8G 8E 8C\	.	.
=43	=43	=43
8AL 8F 8D\	8f'</L	.
.	(<16qqf/LL	.
.	16qqg/JJ	.
8A 8F 8D\	8a/)	.
8AJ 8F 8D\	8f'</J	.
=44	=44	=44
.	8qf/	.
8AL 8E 8C#X 8AA\	16.e/LL	.
.	32d#X/JJk	.
8A 8E 8C# 8AA\	4e/	.
8AJ 8E 8C# 8AA\	.	.
*Xtremolo	*	*
=45	=45	=45
*^	*	*
4BB-/	8BB-\L	(<32d/LLL	<
.	.	32f/	.
.	.	32b-/	.
.	.	32dd/JJJ)	.
.	8B- 8F 8D\	8ff\L	.
8ryy	8A-XJ 8F 8BBn\	8dd'>\J	[[
!!LO:LB:g=original
*v	*v	*	*
=46	=46	=46
*tremolo	*	*
!	!	!LO:DY:b:Bi:t=%sor
.	(<8qdd/	f
8AnL 8F 8C\	16.cc\LL)	.
.	32bn'>\JJk	.
8A 8F 8C\	8cc'>\L	.
8AJ 8F 8C\	8a'>\J	.
=47	=47	=47
8B-L 8G 8E 8C\	(>16dd\LL	.
.	16cc\	.
8B- 8G 8E 8C\	16bn\	.
.	16cc\	.
8B-J 8G 8E 8C\	16b-X\	.
.	16g\JJ)	.
*Xtremolo	*	*
=48	=48	=48
8A 8F\	8f/	.
8F 8FF/	8ff 8a'>\	.
!	!LO:TX:a:t=P:problem=w źródle podwójna kreska taktowa przed następną stroną [na nowej stronie kreska repetycji]	!
!	!LO:TX:b:Bi:t=V&colon;S&colon;	!
8r	8r	.
!!LO:PB:g=original
=49!|:	=49!|:	=49!|:
*^	*	*
*>E	*	*>E	*
!	!	!	!LO:DY:b:Bi:t=%sor
4.C#X/	8C#\L	16.ee'>\LL	f
.	.	32ee'>\JJk	.
.	8A 8G 8E\	(<16g#X/LL	.
.	.	16a/)	.
.	8AJ 8G 8E\	(<16g#/	.
.	.	16a/JJ)	.
=50	=50	=50	=50
4.D/	8D\L	16.ff'>\LL	.
.	.	32ff'>\JJk	.
.	8A 8F\	(>16cc#X\LL	.
.	.	16dd\)	.
.	8AJ 8F\	(>16cc#\	.
.	.	16dd\JJ)	.
=51	=51	=51	=51
!	!	!LO:TUP:a	!
4.AA/	8AA\L	(>24cc#X\LL	.
.	.	24ee\	.
.	.	24gg\JJ	.
.	8A 8E 8C#X\	8bb-\L)	.
.	8AJ 8E 8C#\	8aa'>\J	.
=52	=52	=52	=52
.	.	(<8qgg/	.
4.D/	8D\L	16.ff\LL)	.
.	.	32ee\K	.
.	8A 8F\	16.ff\	.
.	.	32ee\JK	.
.	8AJ 8F\	8dd\J	.
=53	=53	=53	=53
4.E/	8E\L	16.ggLL 16.cc 16.g^<\	.
.	.	32ggJJk 32cc 32g\	.
.	8c 8B- 8G\	(>16bn\LL	.
.	.	16cc\)	.
.	8cJ 8B- 8G\	(>16b\	.
.	.	16cc\JJ)	.
!!LO:LB:g=original
=54	=54	=54	=54
4.F/	8F\L	16.aaLL 16.ff 16.cc^<\	.
.	.	32aaJJk 32ff 32cc\	.
.	8c 8A\	(>16ee\LL	.
.	.	16ff\)	.
.	8cJ 8A\	(>16ee\	.
.	.	16ff\JJ)	.
=55	=55	=55	=55
!	!	!LO:TUP:a	!
4.C/	8C\L	(>24ee\LL	.
.	.	24gg\	.
.	.	24bb-\JJ	.
.	8B- 8G 8E\	8ddd\L)	.
.	8B-J 8G 8E\	8ccc'>\J	.
*v	*v	*	*
=56	=56	=56
8AL 8F\	8ff\L	.
8cJ 8G 8C\	8cccJ 8ee 8cc\	.
8ryy	8r	.
=57	=57	=57
*tremolo	*	*
8cL 8A 8F\	8a'</L	p
.	(<16qqa/LL	.
.	16qqb-/JJ	.
8c 8A 8F\	8cc/)	.
8cJ 8A 8F\	8a'</J	.
=58	=58	=58
.	(<8qa/	.
8cL 8G 8E 8C\	16.g/LL)	.
.	32f#X'</JJk	.
8c 8G 8E 8C\	4g'</	.
8cJ 8G 8E 8C\	.	.
!!LO:LB:g=original
=59	=59	=59
8AL 8F 8D\	8f'</L	.
.	(<16qqf/LL	.
.	16qqg/JJ	.
8A 8F 8D\	8a/)	.
8AJ 8F 8D\	8f'</J	.
=60	=60	=60
.	(<8qf/	.
8AL 8E 8C#X 8AA\	16.e/LL)	.
.	32d#X'</JJk	.
8A 8E 8C# 8AA\	4e'</	.
8AJ 8E 8C# 8AA\	.	.
*Xtremolo	*	*
=61	=61	=61
*^	*	*
4BB-/	8BB-\L	(<32d/LLL	<
.	.	32f/	.
.	.	32b-/	.
.	.	32dd/JJJ	.
.	8B- 8F 8D\	8ff\L)	.
8ryy	8A-XJ 8F 8BBn\	8dd'>\J	[[
*v	*v	*	*
=62	=62	=62
*tremolo	*	*
.	(<8qdd/	f
8AnL 8F 8C\	16.cc\LL)	.
.	32bn\JJk	.
8A 8F 8C\	8cc\L	.
8AJ 8F 8C\	8a\J	.
=63	=63	=63
8B-L 8G 8E 8C\	(>16dd\LL	.
.	16cc\	.
8B- 8G 8E 8C\	16bn\	.
.	16cc\	.
8B-J 8G 8E 8C\	16b-X\	.
.	16g\JJ)	.
*Xtremolo	*	*
=64	=64	=64
8A 8F\	8f/	.
8F 8FF/	8ff 8a\	.
!	!LO:TX:a:t=P:problem=w źródle fermata nad kreską repetycji	!
!	!LO:TX:b:Bi:t=da capo\nmazur\nal fine\ne poi la\nCoda	!
8r	8r;>	.
!!LO:LB:g=original
=65:|!	=65:|!	=65:|!
*>F	*>F	*
*k[]	*k[]	*
!	!LO:TX:a:Bi:t=Coda	!
!	!	!LO:DY:b:Bi:t=%sor:rj
8eL 8c 8A\	(>32b\LLL	f
.	32cc\	.
.	32ee\	.
.	32aa\JJ)	.
8eJ 8c 8A\	8cccJ 8cc\	.
8r	8r	.
=66	=66	=66
8dL 8A 8F\	(>32cc#X\LLL	.
.	32dd\	.
.	32ff\	.
.	32aa\JJ)	.
8dJ 8A 8F\	8dddJ 8dd'>\	.
8r	8r	.
=67	=67	=67
!	!LO:TUP:a	!
8G 8GG\	(>24b\LL	.
.	24dd\	.
.	24ff\JJ)	.
8fL 8B 8G\	8aa\L	.
8fJ 8B 8G\	8gg\J	.
=68	=68	=68
8eL 8c\	(>32ee\LLL	.
.	32cc\	.
.	32ee\	.
.	32gg\JJ)	.
8eJ 8c\	8cccJ 8cc'>\	.
8r	8r	.
=69	=69	=69
8eL 8c 8A\	(>32ee\LLL	.
.	32cc\	.
.	32ee\	.
.	32aa\JJ)	.
8eJ 8c 8A\	8cccJ 8cc'>\	.
8r	8r	.
!!LO:LB:g=original
=70	=70	=70
8dL 8A 8F\	(>32ff\LLL	.
.	32dd\	.
.	32ff\	.
.	32aa\JJ)	.
8dJ 8A 8F\	8dddJ 8dd'>\	.
8r	8r	.
=71	=71	=71
*tremolo	*	*
8fL 8d 8G\	(>32gg\LLL	.
.	32ff\	.
.	32ee\	.
.	32dd\JJJ	.
8f 8d 8G\	32cc/LLL	.
.	32b/	.
.	32a/	.
.	32g/JJJ)	.
8fJ 8d 8G\	(<32f#X/LLL	.
.	32g/	.
.	32a/	.
.	32b/JJJ	.
*Xtremolo	*	*
=72	=72	=72
8eL 8c\	8cc\L)	.
8cJ 8C\	8cccJ 8ee 8cc\	.
8r	8r	.
==	==	==
*-	*-	*-
!!!system-decoration: {(s1,s2)}
!!!RDF**kern: > = above
!!!RDF**kern: < = below
!!!RDF**dynam: < = "cres", fontstyle= "bold-italic"
!!!RDF**dynam: > = "dim", fontstyle= "bold-italic"
!!!RDF**kern: N = linked
!!!RDF**kern: i = editorial accidental
!!!EED: Wojciech Jakubiak-Danek
!!!EEV: 2021-05-02
!!!ENC: Marcin Jachim
!!!END: 2021-04-10
!!!YEC: Copyright 2022 Narodowy Instytut Fryderyka Chopina (https://polishscores.org)
!!!YEM: Licence CC BY 4.0 (https://creativecommons.org/licenses/by/4.0)
